X:1
T:Anagola, CMD
T:Anagola, CMD
T:Thomas Hastings Henry Crossley, 1868
T:Public Domain Courtesy of the Cyber Hymnal™
C:Thomas Hastings Henry Crossley, 1868
Z:Public Domain
Z:Courtesy of the Cyber Hymnal™
%%score ( 1 2 ) ( 3 4 )
L:1/8
Q:1/4=110
M:4/4
K:C
V:1 treble 
V:2 treble 
V:3 bass 
V:4 bass 
V:1
 [EG]2 | [EG]2 [EG]2 [Ec]2 [CG]2 | [B,G]2 [DF]2 [CE]2 [CE]2 | [CD]2 [^CE]2 [DF]2 [_EA]2 | %4
 G6 [FG]2 | [EG]2 [EG]2 [Fc]2 [FG]2 | [EG]2 [D^F]2 [DG]2 [DA]2 | [DB]2 (dc) [DB]2 [CA]2 | %8
 G6 [DG]2 | [EG]2 [FG]2 [Ec]2 [DB]2 | [CA]2 [D^G]2 [CA]2 [DB]2 | [Ec]2 [G^c]2 [^Fd]2 [FA]2 | %12
 (c4 B2) [FG]2 | [Ee]2 [Gd]2 [Gc]2 [^GB]2 | [^GB]3 A A2 [^DA]2 | [EG]2 [Fc]2 e3 (z d) | [Ec]6 |] %17
V:2
 x2 | x8 | x8 | x8 | (D2 B,2 C2) x2 | x8 | x8 | x2 E2 x4 | (B,4 C2) x2 | x8 | x8 | x8 | F6 x2 | %13
 x8 | x3 A A2 x2 | x4 F2 F2 x | x6 |] %17
V:3
 [C,C]2 | [C,C]2 [C,C]2 [C,G,]2 [E,G,]2 | [D,G,]2 [G,,G,]2 [C,G,]2 G,2 | %3
 [F,A,]2 [E,A,]2 [D,A,]2 [C,^F,]2 | G,6 [B,,G,]2 | [C,C]2 [C,B,]2 [C,A,]2 [C,B,]2 | %6
 [C,C]2 [A,,C]2 [B,,B,]2 [^F,A,]2 | G,2 [C,G,]2 [D,G,]2 [D,^F,]2 | G,6 [B,,G,]2 | %9
 [C,G,]2 [D,G,]2 [E,G,]2 [E,^G,]2 | [F,A,]2 [F,B,]2 [F,A,]2 [F,_A,]2 | %11
 [E,G,]2 [E,_B,]2 [^F,A,]2 [D,D]2 | [G,D]6 [G,B,]2 | [C,G,]2 [D,B,]2 [E,E]2 [E,D]2 | %14
 [F,D]3 [F,C] [F,C]2 [^F,C]2 | [G,C]2 [A,C]2 [G,B,]2 [G,,B,]2 x | [C,C]6 |] %17
V:4
 x2 | x8 | x6 G,2 | x8 | (B,,2 G,,2 A,,2) x2 | x8 | x8 | G,2 x6 | (G,,4 A,,2) x2 | x8 | x8 | x8 | %12
 x8 | x8 | x8 | x9 | x6 |] %17

